X:1
T:Psalm 121
T:Walford - Davies
T:Psalm 121
C:Walford - Davies
%%score [ ( 1 2 ) ( 3 4 ) ]
L:1/8
M:2/4
K:D
V:1 treble nm="P1" snm="S. A."
V:2 treble 
V:3 bass nm="P2" snm="T. B."
V:4 bass 
V:1
"^Solo""^1.     I will lift up mine eyes | unto . the | hills:        from | whence | cometh : my | help.""^2.     My help cometh even | from· the | Lord:       Who hath | ma-de | heaven· and | earth.""^4.    Behold, he that | keep-eth | Isra-el :       Shall | nei-ther | slumber· nor | sleep.""^3.     He will not suffer thy | foot· to be | moved:       And he that | keepeth . thee | will not | sleep.""^5.    The Lord him/self is . thy | keeper:       The Lord is thy de/fence up/on thy· right | hand;""^6.    So that the sun shall not | burn thee . by | day:       Nei/ther the | moon by | night.""^8.    The Lord shall preserve thy going out, and thy | coming | in :       From this time | forth for | ev-er/more.""^7.    The Lord shall preserve thee from | all | evil :       Yea, * it is even | he that . shall | keep thy | soul." F4 | %1
 A2 B2 | d4 | F4 | A2 B2 | A2 A2 | A4 || z4 | z4 | z4 | F4 | A2 B2 | A2 E2 | F4 |] %14
V:2
 x4 | x4 | x4 | D4 | E2 G2 | E2 E2 | F4 || x4 | x4 | x4 | D4 | E2 G2 | E2 E2 | D4 |] %14
V:3
 z4 | z4 | z4 | B,4 | C2 D2 | D2 C2 | D4 ||"^Solo" A,4 | B,2 D2 | C2 B,2 | B,4 | C2 D2 | D2 C2 | %13
w: |||||* Levavi~oculus||||||||
 D4 |] %14
w: |
V:4
 x4 | x4 | x4 | B,4 | A,2 G,2 | A,2 A,2 | [D,A,]4 || x4 | x4 | x4 | B,4 | A,2 G,2 | A,2 A,2 | %13
 [D,A,]4 |] %14

